src/Images/icons/namaj.svg

<svg width="32" height="32" viewBox="0 0 32 32" fill="none" xmlns="http://www.w3.org/2000/svg">
<path d="M13.6659 6.81799L12.1489 9.72499L15.3849 10.916L16.3649 8.93499" fill="#FDC475"/>
<path d="M15.1338 9.26001L14.6578 9.00701C14.281 8.80777 13.9475 8.53579 13.6765 8.2068C13.4055 7.87782 13.2024 7.49836 13.079 7.09039C12.9556 6.68241 12.9143 6.25401 12.9575 5.82998C13.0008 5.40595 13.1276 4.99469 13.3308 4.62001L14.2948 2.84601C14.7109 2.088 15.4092 1.52473 16.238 1.27852C17.0669 1.03231 17.9595 1.12304 18.7218 1.53101L19.1978 1.78501C19.5746 1.98426 19.9082 2.25624 20.1792 2.58522C20.4502 2.91421 20.6533 3.29366 20.7767 3.70164C20.9001 4.10961 20.9414 4.53801 20.8981 4.96204C20.8549 5.38608 20.728 5.79733 20.5248 6.17201L19.5608 7.94601C19.1448 8.70402 18.4465 9.26729 17.6176 9.5135C16.7888 9.75972 15.8962 9.66898 15.1338 9.26101V9.26001Z" fill="#FFDAA7"/>
<path d="M15.6898 9.48001L15.2148 9.22701C14.838 9.02776 14.5045 8.75578 14.2335 8.42679C13.9625 8.09781 13.7594 7.71835 13.636 7.31038C13.5126 6.9024 13.4713 6.47401 13.5145 6.04997C13.5578 5.62594 13.6846 5.21469 13.8878 4.84001L14.8518 3.06601C15.2096 2.41493 15.7778 1.90462 16.4634 1.61867C17.1491 1.33271 17.9115 1.28805 18.6258 1.49201C17.8687 1.11549 16.9953 1.04615 16.1882 1.29847C15.3811 1.5508 14.7027 2.10526 14.2948 2.84601L13.3308 4.62001C13.1276 4.99469 13.0008 5.40594 12.9575 5.82997C12.9143 6.25401 12.9556 6.6824 13.079 7.09038C13.2024 7.49835 13.4055 7.87781 13.6765 8.2068C13.9475 8.53578 14.281 8.80776 14.6578 9.00701L15.1338 9.26101C15.3416 9.37078 15.5605 9.45795 15.7868 9.52101C15.7548 9.50501 15.7218 9.49701 15.6908 9.48101L15.6898 9.48001Z" fill="#FFDAA7"/>
<path d="M14.4229 2.60698C15.3555 3.14698 16.2969 3.70332 17.2469 4.27598C18.3469 4.93865 19.4229 5.60165 20.4749 6.26498C20.721 5.85527 20.882 5.40009 20.9482 4.9267C21.0143 4.45331 20.9842 3.97144 20.8598 3.50994C20.7353 3.04844 20.519 2.61679 20.2239 2.24084C19.9287 1.86489 19.5607 1.55237 19.1419 1.32198C18.6318 1.02232 18.0533 0.858753 17.4619 0.846985C16.8546 0.889103 16.265 1.0696 15.7383 1.37466C15.2116 1.67971 14.7616 2.10125 14.4229 2.60698V2.60698Z" fill="#E0E0E2"/>
<path d="M17.9979 1.16998C18.4793 1.17697 18.9535 1.28819 19.3879 1.49598C19.3039 1.43898 19.2329 1.37398 19.1429 1.32198C18.6328 1.02232 18.0543 0.858753 17.4629 0.846985C16.8554 0.888954 16.2657 1.06938 15.7387 1.37444C15.2118 1.67951 14.7617 2.10112 14.4229 2.60698C14.6009 2.70998 14.7829 2.82098 14.9609 2.92498C15.2995 2.41993 15.7493 1.99909 16.2757 1.69472C16.8021 1.39034 17.3912 1.2105 17.9979 1.16898V1.16998ZM17.7819 4.59798L17.4849 4.42198C18.5009 5.03698 19.5009 5.65098 20.4749 6.26498L20.4779 6.25898C19.5838 5.69782 18.6851 5.14413 17.7819 4.59798V4.59798Z" fill="#D9D8DA"/>
<path d="M14.423 2.60699L16.975 4.11199C16.425 4.40199 15.777 4.79999 15.147 5.21999C14.4344 5.69879 13.7561 6.22674 13.117 6.79999L13.017 6.81999C12.8507 6.07331 12.9609 5.29166 13.327 4.61999L14.297 2.84999L14.423 2.60699Z" fill="#58565D"/>
<path d="M13.87 4.94199L14.84 3.17199L14.966 2.92999L16.974 4.11299L16.975 4.11199L14.423 2.60699L14.297 2.84999L13.327 4.61999C12.9609 5.29166 12.8507 6.07331 13.017 6.81999L13.117 6.79999C13.232 6.69699 13.37 6.58999 13.493 6.48499C13.4849 5.94691 13.6147 5.41571 13.87 4.94199V4.94199Z" fill="#3C3B41"/>
<path d="M20.4899 31.5H5.91992V27.64H7.38992L9.54992 26.62L14.9499 27.64L17.8699 26.98C17.8699 26.98 18.2999 27.27 18.3099 27.27L22.0799 28.06C22.1199 28.11 22.1599 28.15 22.1999 28.21V28.22C22.4231 28.5315 22.5555 28.8988 22.5825 29.2811C22.6095 29.6634 22.53 30.0457 22.3528 30.3855C22.1757 30.7253 21.9078 31.0093 21.5789 31.2061C21.2501 31.4028 20.8731 31.5046 20.4899 31.5V31.5Z" fill="#38BDF8"/>
<path d="M22.2001 28.21V28.22C22.1801 28.68 21.8601 29.2 20.5301 29.26C15.7501 29.48 16.0001 29.68 15.0001 29.59C12.7001 29.39 12.3101 28.67 9.69014 28.58C9.02027 28.5406 8.34841 28.5513 7.68014 28.612C7.62014 28.272 7.44014 27.97 7.39014 27.64L9.55014 26.62L14.9501 27.64L17.8701 26.98C17.8701 26.98 18.3001 27.27 18.3101 27.27L22.0801 28.06C22.1201 28.11 22.1601 28.15 22.2001 28.21V28.21Z" fill="#38BDF8"/>
<path d="M20.5298 28.26C15.7498 28.48 15.9998 28.68 14.9998 28.59C12.6998 28.39 12.3098 27.67 9.68978 27.58C8.92264 27.548 8.15421 27.5681 7.38978 27.64C7.23978 26.8 7.13978 26 6.98978 25.16C6.84658 24.3296 6.75308 23.4915 6.70978 22.65C6.668 21.8567 6.68137 21.0614 6.74978 20.27C6.82117 19.5117 6.94818 18.7597 7.12978 18.02C7.3098 17.2882 7.54035 16.5698 7.81978 15.87C8.11174 15.1494 8.44908 14.4479 8.82978 13.77C9.44701 12.6676 10.1386 11.6084 10.8998 10.6C11.1216 10.2863 11.408 10.0237 11.7398 9.82999C11.8496 9.77233 11.9677 9.73185 12.0898 9.70999C12.37 9.67399 12.6543 9.68753 12.9298 9.74999C13.3332 9.80499 13.7291 9.90564 14.1098 10.05C14.5089 10.2003 14.8883 10.3984 15.2398 10.64C16.2898 11.36 16.5798 12.74 16.8198 13.91C16.8298 13.95 16.8298 13.99 16.8398 14.03C16.9451 14.5446 17.0152 15.0658 17.0498 15.59C17.0289 16.6748 16.755 17.7398 16.2498 18.7C16.1998 18.82 16.1598 18.94 16.1198 19.06C15.6198 20.55 16.7798 21.96 17.9098 22.81C19.4198 23.95 21.2198 24.77 22.0498 26.57C22.1898 26.88 22.6698 28.16 20.5298 28.26Z" fill="#38BDF8"/>
<path d="M7.98978 25.16C7.84658 24.3296 7.75308 23.4915 7.70978 22.65C7.668 21.8567 7.68137 21.0614 7.74978 20.27C7.82117 19.5117 7.94818 18.7597 8.12978 18.02C8.3098 17.2882 8.54035 16.5698 8.81978 15.87C9.11174 15.1494 9.44908 14.4479 9.82978 13.77C10.447 12.6676 11.1386 11.6084 11.8998 10.6C12.1216 10.2863 12.408 10.0237 12.7398 9.82999C12.8101 9.79855 12.883 9.77345 12.9578 9.75499L12.9298 9.74999C12.6543 9.68753 12.37 9.67399 12.0898 9.70999C11.9677 9.73185 11.8496 9.77233 11.7398 9.82999C11.408 10.0237 11.1216 10.2863 10.8998 10.6C10.1386 11.6084 9.44701 12.6676 8.82978 13.77C8.44908 14.4479 8.11174 15.1494 7.81978 15.87C7.54035 16.5698 7.3098 17.2882 7.12978 18.02C6.94818 18.7597 6.82117 19.5117 6.74978 20.27C6.68137 21.0614 6.668 21.8567 6.70978 22.65C6.75308 23.4915 6.84658 24.3296 6.98978 25.16C7.13978 26 7.23978 26.8 7.38978 27.64C7.64678 27.61 7.98478 27.587 8.37978 27.576C8.23578 26.76 8.13578 25.978 7.98978 25.16V25.16Z" fill="#38BDF8"/>
<path d="M5.91677 31.5V27.64C5.41684 27.6356 4.92588 27.7729 4.50077 28.036C3.99356 28.4496 3.5933 28.9792 3.33377 29.58C2.83142 30.3613 2.15771 31.0179 1.36377 31.5H5.91677Z" fill="#FFDAA7"/>
<path d="M17.0498 15.59C17.029 16.6748 16.755 17.7398 16.2498 18.7L12.3188 16.774C12.2573 16.7437 12.2025 16.7012 12.1578 16.6492C12.1132 16.5971 12.0795 16.5365 12.059 16.4711C12.0384 16.4056 12.0313 16.3367 12.0382 16.2685C12.045 16.2002 12.0657 16.134 12.0988 16.074L13.6998 13.18L16.9798 14.88C17.0098 15.12 17.0298 15.35 17.0498 15.59Z" fill="#D9D8DA"/>
<path d="M13.6958 13.18L18.3628 15.587L21.1848 11.852C21.2001 11.832 21.2202 11.8161 21.2433 11.806C21.2664 11.7958 21.2917 11.7917 21.3168 11.794L23.7658 12.019C23.79 12.0213 23.8133 12.0294 23.8337 12.0427C23.854 12.0561 23.8708 12.0742 23.8825 12.0955C23.8943 12.1168 23.9006 12.1406 23.901 12.165C23.9014 12.1893 23.8958 12.2133 23.8848 12.235L21.0108 17.892C20.6672 18.5587 20.0769 19.0648 19.3656 19.3026C18.6543 19.5404 17.8782 19.491 17.2028 19.165L11.8418 16.538" fill="#E0E0E2"/>
<path d="M21.4448 11.805C21.7463 11.1658 21.9834 10.4981 22.1528 9.812C22.3428 9.046 23.4328 7.976 23.9228 8.068C24.0798 9.38642 23.9941 10.7225 23.6698 12.01L21.5908 11.819" fill="#FFDAA7"/>
</svg>

<svg xmlns="http://www.w3.org/2000/svg" data-name="Layer 1" viewBox="0 0 32 32"><path fill="#fdc475" d="m13.666 6.818-1.517 2.907 3.236 1.191.98-1.981"/><path fill="#ffdaa7" d="m15.134 9.26-.476-.253a3.224 3.224 0 0 1-1.327-4.387l.964-1.774a3.283 3.283 0 0 1 4.427-1.315l.476.254a3.224 3.224 0 0 1 1.327 4.387l-.964 1.774a3.283 3.283 0 0 1-4.427 1.315Z"/><path fill="#ffdaa7" d="m15.69 9.48-.475-.253a3.224 3.224 0 0 1-1.327-4.387l.964-1.774a3.279 3.279 0 0 1 3.774-1.574 3.278 3.278 0 0 0-4.331 1.354l-.964 1.774a3.224 3.224 0 0 0 1.327 4.387l.476.254a3.284 3.284 0 0 0 .653.26c-.032-.016-.065-.024-.096-.04Z"/><path fill="#e0e0e2" d="M14.423 2.607q1.399.81 2.824 1.669 1.65.994 3.228 1.989a3.553 3.553 0 0 0-1.333-4.943 3.452 3.452 0 0 0-1.68-.475 3.99 3.99 0 0 0-3.039 1.76Z"/><path fill="#d9d8da" d="M17.998 1.17a3.333 3.333 0 0 1 1.39.326c-.084-.057-.155-.122-.245-.174a3.452 3.452 0 0 0-1.68-.475 3.99 3.99 0 0 0-3.04 1.76c.178.103.36.214.538.318a3.984 3.984 0 0 1 3.037-1.756zm-.216 3.428-.297-.176c1.016.615 2.016 1.229 2.99 1.843l.003-.006a189.453 189.453 0 0 0-2.696-1.661z"/><path fill="#58565d" d="m14.423 2.607 2.552 1.505c-.55.29-1.198.688-1.828 1.108a18.45 18.45 0 0 0-2.03 1.58l-.1.02a3.161 3.161 0 0 1 .31-2.2l.97-1.77Z"/><path fill="#3c3b41" d="m13.87 4.942.97-1.77.126-.242 2.008 1.183.001-.001-2.552-1.505-.126.243-.97 1.77a3.161 3.161 0 0 0-.31 2.2l.1-.02c.115-.103.253-.21.376-.315a3.152 3.152 0 0 1 .377-1.543Z"/><path fill="#e0e0e2" d="M20.49 31.5H5.92v-3.86h1.47l2.16-1.02 5.4 1.02 2.92-.66s.43.29.44.29l3.77.79c.04.05.08.09.12.15v.01a2.073 2.073 0 0 1-1.71 3.28Z"/><path fill="#d9d8da" d="M22.2 28.21v.01c-.02.46-.34.98-1.67 1.04-4.78.22-4.53.42-5.53.33-2.3-.2-2.69-.92-5.31-1.01a13.48 13.48 0 0 0-2.01.032c-.06-.34-.24-.642-.29-.972l2.16-1.02 5.4 1.02 2.92-.66s.43.29.44.29l3.77.79c.04.05.08.09.12.15Z"/><path fill="#e0e0e2" d="M20.53 28.26c-4.78.22-4.53.42-5.53.33-2.3-.2-2.69-.92-5.31-1.01a16.995 16.995 0 0 0-2.3.06c-.15-.84-.25-1.64-.4-2.48a21.17 21.17 0 0 1-.28-2.51 17.159 17.159 0 0 1 .04-2.38 15.551 15.551 0 0 1 .38-2.25 16.298 16.298 0 0 1 .69-2.15 18.401 18.401 0 0 1 1.01-2.1 27.826 27.826 0 0 1 2.07-3.17 2.69 2.69 0 0 1 .84-.77 1.213 1.213 0 0 1 .35-.12 2.41 2.41 0 0 1 .84.04 5.377 5.377 0 0 1 1.18.3 5.28 5.28 0 0 1 1.13.59c1.05.72 1.34 2.1 1.58 3.27.01.04.01.08.02.12a11.585 11.585 0 0 1 .21 1.56 6.967 6.967 0 0 1-.8 3.11c-.05.12-.09.24-.13.36-.5 1.49.66 2.9 1.79 3.75 1.51 1.14 3.31 1.96 4.14 3.76.14.31.62 1.59-1.52 1.69Z"/><path fill="#d9d8da" d="M7.99 25.16a21.17 21.17 0 0 1-.28-2.51 17.159 17.159 0 0 1 .04-2.38 15.551 15.551 0 0 1 .38-2.25 16.298 16.298 0 0 1 .69-2.15 18.401 18.401 0 0 1 1.01-2.1 27.826 27.826 0 0 1 2.07-3.17 2.69 2.69 0 0 1 .84-.77 1.293 1.293 0 0 1 .218-.075l-.028-.005a2.41 2.41 0 0 0-.84-.04 1.213 1.213 0 0 0-.35.12 2.69 2.69 0 0 0-.84.77 27.826 27.826 0 0 0-2.07 3.17 18.401 18.401 0 0 0-1.01 2.1 16.298 16.298 0 0 0-.69 2.15 15.551 15.551 0 0 0-.38 2.25 17.159 17.159 0 0 0-.04 2.38 21.17 21.17 0 0 0 .28 2.51c.15.84.25 1.64.4 2.48.257-.03.595-.053.99-.064-.144-.816-.244-1.598-.39-2.416Z"/><path fill="#ffdaa7" d="M5.917 31.5v-3.86a2.646 2.646 0 0 0-1.416.396 4.08 4.08 0 0 0-1.167 1.544 6.116 6.116 0 0 1-1.97 1.92Z"/><path fill="#d9d8da" d="M17.05 15.59a6.967 6.967 0 0 1-.8 3.11l-3.931-1.926a.507.507 0 0 1-.22-.7L13.7 13.18l3.28 1.7c.03.24.05.47.07.71Z"/><path fill="#e0e0e2" d="m13.696 12.18 4.667 2.407 2.822-3.735a.149.149 0 0 1 .132-.058l2.449.225a.149.149 0 0 1 .119.216l-2.874 5.657a2.877 2.877 0 0 1-3.808 1.273l-5.361-2.627"/><path fill="#ffdaa7" d="M21.445 10.805a10.664 10.664 0 0 0 .708-1.993c.19-.766 1.28-1.836 1.77-1.744a10.875 10.875 0 0 1-.253 3.942l-2.079-.191"/></svg>
